X: 11
T:The Auld Criple Dow
Q:128
L:1/8
M:C|
Z:Bruce Olson
N:from The Scottish Music List, Vol2 No 52
K:F
c|(d3/2e/2f3/2a/2) gfec|defc f3c|d3/2e/2f3/2a/2 gfec|\
A/2A/2A Ac {e/2}f2::c|AFFA BGGB|AFFA defc|AFFA BGGc|\
AGAc{e/2}f2:|]
